X:1
T:Australia's on the Wallaby
M:4/4
L:1/4
K:F
 c| c d c3/2 F/2| A A A3/2 C/2| C C D3/2 C/2| C F2| C| F F F A| G G GA/2-A/2|\
 C C D3/2 C/2| C F2| c| c3/2 d/2 c A| G F CC/2-C/2| F F A c| d- c2|\
 C/2C/2| F F F A| G G A C| C C D3/2 C/2| C- F2||
